public/logos/MP.svg

<?xml version="1.0" encoding="UTF-8"?>
<svg xmlns="http://www.w3.org/2000/svg" xmlns:xlink="http://www.w3.org/1999/xlink" width="176pt" height="35.39pt" viewBox="0 0 176 35.39" version="1.1">
<defs>
<clipPath id="clip1">
  <path d="M 0 0 L 26 0 L 26 35.390625 L 0 35.390625 Z M 0 0 "/>
</clipPath>
</defs>
<g id="surface1">
<path style=" stroke:none;fill-rule:nonzero;fill:rgb(11.871338%,20.776367%,36.413574%);fill-opacity:1;" d="M 72.90625 20.449219 L 72.90625 3.746094 L 72.851562 3.691406 L 68.183594 20.449219 L 62.984375 20.449219 L 58.59375 3.550781 L 58.539062 3.605469 L 58.539062 20.449219 L 53.496094 20.449219 L 53.496094 -0.00390625 L 62.480469 -0.00390625 L 65.738281 14.488281 L 65.792969 14.488281 L 69.132812 -0.00390625 L 78 -0.00390625 L 78 20.449219 L 72.90625 20.449219 "/>
<path style=" stroke:none;fill-rule:nonzero;fill:rgb(11.871338%,20.776367%,36.413574%);fill-opacity:1;" d="M 94.125 20.449219 L 89.320312 20.449219 L 89.320312 18.570312 L 89.261719 18.570312 C 88.628906 19.566406 87.449219 20.863281 84.863281 20.863281 C 81.59375 20.863281 79.894531 19.09375 79.949219 16.246094 C 80.003906 12.871094 83.078125 11.488281 87.585938 11.488281 L 89.234375 11.488281 C 89.234375 10.273438 89.511719 8.503906 87.421875 8.585938 C 86.160156 8.640625 85.746094 9.886719 85.773438 10.714844 L 80.851562 10.714844 C 80.824219 8.75 81.84375 7.617188 83.242188 6.980469 C 84.671875 6.316406 86.460938 6.152344 87.996094 6.152344 C 90.800781 6.152344 94.179688 7.339844 94.125 10.464844 Z M 86.789062 17.820312 C 89.042969 17.820312 89.234375 15.691406 89.234375 13.839844 C 88.136719 13.839844 87.09375 13.78125 86.378906 14.144531 C 85.609375 14.53125 85.003906 15.027344 85.003906 15.996094 C 85.003906 16.992188 85.800781 17.820312 86.789062 17.820312 "/>
<path style=" stroke:none;fill-rule:nonzero;fill:rgb(11.871338%,20.776367%,36.413574%);fill-opacity:1;" d="M 156.367188 20.449219 L 151.554688 20.449219 L 151.554688 18.570312 L 151.5 18.570312 C 150.867188 19.566406 149.6875 20.863281 147.105469 20.863281 C 143.832031 20.863281 142.128906 19.09375 142.183594 16.246094 C 142.238281 12.871094 145.316406 11.488281 149.824219 11.488281 L 151.472656 11.488281 C 151.472656 10.273438 151.75 8.503906 149.660156 8.585938 C 148.394531 8.640625 147.984375 9.886719 148.011719 10.714844 L 143.09375 10.714844 C 143.0625 8.75 144.082031 7.617188 145.480469 6.980469 C 146.910156 6.316406 148.699219 6.152344 150.238281 6.152344 C 153.039062 6.152344 156.421875 7.339844 156.367188 10.464844 Z M 149.027344 17.820312 C 151.28125 17.820312 151.472656 15.691406 151.472656 13.839844 C 150.371094 13.839844 149.332031 13.78125 148.617188 14.144531 C 147.847656 14.53125 147.242188 15.027344 147.242188 15.996094 C 147.242188 16.992188 148.039062 17.820312 149.027344 17.820312 "/>
<path style=" stroke:none;fill-rule:nonzero;fill:rgb(11.871338%,20.776367%,36.413574%);fill-opacity:1;" d="M 96.480469 6.566406 L 101.605469 6.566406 L 101.605469 9.359375 L 101.660156 9.457031 C 102.265625 7.160156 103.96875 6.289062 106.277344 6.347656 L 106.277344 10.796875 C 105.890625 10.773438 105.535156 10.773438 105.179688 10.773438 C 102.457031 10.796875 101.523438 12.429688 101.605469 15.085938 L 101.605469 20.453125 L 96.480469 20.453125 L 96.480469 6.566406 "/>
<path style=" stroke:none;fill-rule:nonzero;fill:rgb(11.871338%,20.776367%,36.413574%);fill-opacity:1;" d="M 166.230469 6.566406 L 171.355469 6.566406 L 171.355469 9.359375 L 171.410156 9.457031 C 172.015625 7.160156 173.71875 6.289062 176 6.347656 L 176 10.796875 C 175.640625 10.773438 175.285156 10.773438 174.925781 10.773438 C 172.207031 10.796875 171.269531 12.429688 171.355469 15.085938 L 171.355469 20.453125 L 166.230469 20.453125 L 166.230469 6.566406 "/>
<path style=" stroke:none;fill-rule:nonzero;fill:rgb(11.871338%,20.776367%,36.413574%);fill-opacity:1;" d="M 96.480469 6.566406 L 101.605469 6.566406 L 101.605469 9.359375 L 101.660156 9.457031 C 102.265625 7.160156 103.96875 6.289062 106.253906 6.347656 L 106.253906 10.796875 C 105.890625 10.773438 105.535156 10.773438 105.179688 10.773438 C 102.457031 10.796875 101.523438 12.429688 101.605469 15.085938 L 101.605469 20.453125 L 96.480469 20.453125 L 96.480469 6.566406 "/>
<path style=" stroke:none;fill-rule:nonzero;fill:rgb(11.871338%,20.776367%,36.413574%);fill-opacity:1;" d="M 107.875 3.664062 L 112.902344 1.6875 L 112.902344 6.566406 L 115.925781 6.566406 L 115.925781 9.886719 L 112.902344 9.886719 L 112.902344 15.390625 C 112.902344 15.75 112.683594 17.546875 113.894531 17.546875 C 114.582031 17.546875 115.292969 17.546875 115.898438 17.464844 L 115.898438 20.589844 C 114.71875 20.8125 114.058594 20.867188 113.289062 20.867188 C 109.742188 20.867188 107.597656 20.371094 107.875 16.109375 L 107.875 3.664062 "/>
<path style=" stroke:none;fill-rule:nonzero;fill:rgb(11.871338%,20.776367%,36.413574%);fill-opacity:1;" d="M 118.265625 6.566406 L 123.488281 6.566406 L 123.488281 20.449219 L 118.265625 20.449219 Z M 118.234375 -0.00390625 L 123.511719 -0.00390625 L 123.511719 3.703125 L 118.234375 3.703125 L 118.234375 -0.00390625 "/>
<path style=" stroke:none;fill-rule:nonzero;fill:rgb(11.871338%,20.776367%,36.413574%);fill-opacity:1;" d="M 125.871094 6.566406 L 131 6.566406 L 131 8.085938 C 132.179688 6.703125 133.554688 6.152344 135.3125 6.152344 C 138.28125 6.152344 140.480469 8.085938 140.480469 11.15625 L 140.480469 20.449219 L 135.257812 20.449219 L 135.257812 12.292969 C 135.203125 10.933594 134.871094 9.46875 133.25 9.46875 C 130.671875 9.46875 131 12.320312 131 12.484375 L 131 20.449219 L 125.871094 20.449219 L 125.871094 6.566406 "/>
<path style=" stroke:none;fill-rule:nonzero;fill:rgb(11.871338%,20.776367%,36.413574%);fill-opacity:1;" d="M 158.738281 6.566406 L 163.957031 6.566406 L 163.957031 20.449219 L 158.738281 20.449219 Z M 158.710938 -0.00390625 L 163.988281 -0.00390625 L 163.988281 3.703125 L 158.710938 3.703125 L 158.710938 -0.00390625 "/>
<g clip-path="url(#clip1)" clip-rule="nonzero">
<path style=" stroke:none;fill-rule:nonzero;fill:rgb(89.379883%,11.277771%,16.140747%);fill-opacity:1;" d="M 0 20.441406 L 12.230469 35.390625 L 21.210938 35.390625 L 8.976562 20.449219 L 25.71875 0.00390625 L 19.667969 0.00390625 C 17.761719 0.00390625 16.03125 0.875 14.910156 2.242188 L 0 20.441406 "/>
</g>
<path style=" stroke:none;fill-rule:nonzero;fill:rgb(89.379883%,11.277771%,16.140747%);fill-opacity:1;" d="M 21.226562 20.449219 L 37.972656 0.00390625 L 31.917969 0.00390625 C 30.011719 0.00390625 28.28125 0.875 27.160156 2.242188 L 12.25 20.441406 L 21.226562 20.449219 "/>
<path style=" stroke:none;fill-rule:nonzero;fill:rgb(89.379883%,11.277771%,16.140747%);fill-opacity:1;" d="M 33.480469 20.449219 L 50.222656 0.00390625 L 44.167969 0.00390625 C 42.265625 0.00390625 40.53125 0.875 39.410156 2.242188 L 24.5 20.441406 L 33.480469 20.449219 "/>
</g>
</svg>

<svg xmlns="http://www.w3.org/2000/svg" width="176pt" height="47.187" viewBox="0 0 176 35.39"><defs><clipPath id="a"><path d="M0 0h26v35.39H0Zm0 0"/></clipPath></defs><path d="M72.906 20.45V3.745l-.054-.055-4.668 16.758h-5.2l-4.39-16.898-.055.054V20.45h-5.043V-.004h8.984l3.258 14.492h.055l3.34-14.492H78V20.45zM94.125 20.45H89.32v-1.88h-.058c-.633.996-1.813 2.293-4.399 2.293-3.27 0-4.968-1.77-4.914-4.617.055-3.375 3.13-4.758 7.637-4.758h1.648c0-1.215.278-2.984-1.812-2.902-1.262.055-1.676 1.3-1.649 2.129h-4.921c-.028-1.965.992-3.098 2.39-3.735 1.43-.664 3.219-.828 4.754-.828 2.805 0 6.184 1.188 6.129 4.313Zm-7.336-2.63c2.254 0 2.445-2.129 2.445-3.98-1.097 0-2.14-.059-2.855.305-.77.386-1.375.882-1.375 1.851 0 .996.797 1.824 1.785 1.824M156.367 20.45h-4.812v-1.88h-.055c-.633.996-1.812 2.293-4.395 2.293-3.273 0-4.976-1.77-4.921-4.617.054-3.375 3.132-4.758 7.64-4.758h1.649c0-1.215.277-2.984-1.813-2.902-1.265.055-1.676 1.3-1.648 2.129h-4.918c-.031-1.965.988-3.098 2.386-3.735 1.43-.664 3.22-.828 4.758-.828 2.801 0 6.184 1.188 6.13 4.313Zm-7.34-2.63c2.254 0 2.446-2.129 2.446-3.98-1.102 0-2.141-.059-2.856.305-.77.386-1.375.882-1.375 1.851 0 .996.797 1.824 1.785 1.824M96.48 6.566h5.125V9.36l.055.098c.606-2.297 2.309-3.168 4.617-3.11v4.45c-.386-.024-.742-.024-1.097-.024-2.723.024-3.657 1.657-3.575 4.313v5.367H96.48zM166.23 6.566h5.125V9.36l.055.098c.606-2.297 2.309-3.168 4.59-3.11v4.45c-.36-.024-.715-.024-1.074-.024-2.719.024-3.656 1.657-3.57 4.313v5.367h-5.126z" style="stroke:none;fill-rule:nonzero;fill:#1e355d;fill-opacity:1"/><path d="M96.48 6.566h5.125V9.36l.055.098c.606-2.297 2.309-3.168 4.594-3.11v4.45c-.363-.024-.719-.024-1.074-.024-2.723.024-3.657 1.657-3.575 4.313v5.367H96.48zM107.875 3.664l5.027-1.977v4.88h3.024v3.32h-3.024v5.504c0 .359-.218 2.156.993 2.156.687 0 1.398 0 2.003-.082v3.125c-1.18.223-1.84.277-2.609.277-3.547 0-5.691-.496-5.414-4.758zM118.266 6.566h5.222V20.45h-5.222Zm-.032-6.57h5.278v3.707h-5.278zM125.871 6.566H131v1.52c1.18-1.383 2.555-1.934 4.313-1.934 2.968 0 5.167 1.934 5.167 5.004v9.293h-5.222v-8.156c-.055-1.36-.387-2.824-2.008-2.824-2.578 0-2.25 2.851-2.25 3.015v7.965h-5.129zM158.738 6.566h5.219V20.45h-5.219Zm-.027-6.57h5.277v3.707h-5.277z" style="stroke:none;fill-rule:nonzero;fill:#1e355d;fill-opacity:1"/><g clip-path="url(#a)"><path d="m0 20.441 12.23 14.95h8.98L8.978 20.449 25.719.004h-6.051a6.16 6.16 0 0 0-4.758 2.238z" style="stroke:none;fill-rule:nonzero;fill:#e41d29;fill-opacity:1"/></g><path d="M21.227 20.45 37.973.003h-6.055a6.16 6.16 0 0 0-4.758 2.238l-14.91 18.2zM33.48 20.45 50.223.003h-6.055a6.16 6.16 0 0 0-4.758 2.238l-14.91 18.2z" style="stroke:none;fill-rule:nonzero;fill:#e41d29;fill-opacity:1"/></svg>
